X:1
T:St. Chavara, CMD
T:St. Chavara, CMD
T:George Coles Stebbins, 1895
T:Public Domain Courtesy of the Cyber Hymnal™
C:George Coles Stebbins, 1895
Z:Public Domain
Z:Courtesy of the Cyber Hymnal™
%%score ( 1 2 ) 3
L:1/8
Q:1/4=90
M:3/4
K:C
V:1 treble 
V:2 treble 
V:3 bass 
V:1
 [EG][^D^F] [EG] | [FA]3 [EG] [CE][EG] | [Ec]3 z [Ec]2 | [FB]3 [B,F] [FA]>[FG] | %4
 [EG]3 [EG] [^D^F][EG] | [FA]3 [EG] [CE][EG] | [Ec]3 z [Ge]2 | [Gd]3 [GB] [^Fc]>[FA] | %8
 G3 [FG] [FA][FB] | [Ge]3 [Fd] [Ed]>[Ec] | [Ec]3 z [Ec]2 | [Fc]3 [FA] [D^G][^DA] | %12
 [EB]3 [FB] [FA][FG] | [Ec]3 [Ge] [Gd][Gc] | [FA]3 z [Fc]2 | [FB]3 [FA] [FB]>[FG] | [Ec]3 |] %17
V:2
 x3 | x6 | x6 | x6 | x6 | x6 | x6 | x6 | G3 x3 | x6 | x6 | x6 | x6 | x6 | x6 | x6 | x3 |] %17
V:3
 [C,G,][C,A,] [C,G,] | [C,C]3 [C,C] [C,G,][C,C] | [C,G,]3 z [C,G,]2 | %3
 [D,G,]3 [D,G,] [B,,C]>[B,,D] | [C,C]3 [C,C] [C,A,][C,G,] | [C,C]3 [C,C] [C,G,][C,C] | %6
 [C,G,]3 z [C,C]2 | [D,B,]3 [D,D] [D,A,]>[D,C] | [G,B,]3 [G,B,] [G,C][G,D] | %9
 [G,C]3 [G,B,] [C,G,]>[C,G,] | [C,G,]3 z [C,_B,]2 | [F,A,]3 [F,C] [F,B,][F,A,] | %12
 [E,^G,]3 [D,=G,] [C,D][B,,D] | [C,C]3 [C,C] [D,B,][E,C] | [F,C]3 z [A,C]2 | %15
 [G,D]3 [G,C] [G,D]>[G,B,] | [C,C]3 |] %17

